!!!OTL: Jiaota shuiche kouchang ge
!!!ARE: Asia, China,ÿHubei Zaoyang
!! I, 393
!!!SCT: C1925
!!!YEM: Copyright 1995, estate of Helmut Schaffrath.
**kern
*ICvox
*Ivox
!! Mixed meters:  2/4; 1/4
*M3/4
*k[f#]
*G:
{16ee
16ee
16ee
16ee
8ee
8r
=1
8g
16g
16a
4ee
=2
16ee
16ff#
16ee
16dd
4ee
=3
16ee
16ff#
16ee
16dd
4a}
=4
{16ee
16ee
16ee
16ee
8ee
8r
=5
8ee
16b
16a
8a
8g}
=6
{16ee
8ee
16ee
16ee
16ee
16ee
16dd
=7
16ee
16gg
16b
16a
16b
16a
8g}
=8
{16ee
16ee
16ee
16ee
8ee
16dd
16dd
=9
16ee
16gg
16ee
16dd
16b
16a
8g}
=10
{16ee
16ee
16ee
16ee
8ee
8r
=11
8a
16a
16b
4ee
=12
16ee
16ff#
16ee
16dd
4ee
=13
16ee
16ff#
16ee
16dd
4a}
=14
{16ee
8ee
16ee
8ee
16dd
16dd
=15
8dd
16dd
16ee
8b
8a}
=16
{16ee
16ee
8ee
16ee
16ee
16ee
16ee
=17
8dd
16b
16a
16b
16a
8g}
=18
{16ee
8ee
16dd
8ee
16dd
16ee
=19
8dd
8b
8dd
8a}
=20
{16ee
16ee
16ee
16ee
8ee
8r
=21
8a
16a
16b
4ee
=22
16ee
16ff#
16ee
16dd
4ee
=23
16ee
16ff#
16ee
16dd
4a}
==
!!!AGN: Haozi, Tiange, Cheshuiluogu
!!!ONB: ESAC (Essen Associative Code) Database: SENGANSU
!!!AMT: irregular
!!!AIN: vox
!!!EED: Helmut Schaffrath
!!!EEV: 1.0
*-
